img/drift.svg

<?xml version="1.0" encoding="UTF-8" standalone="no"?>
<svg width="296px" height="118px" viewBox="0 0 296 118" version="1.1" xmlns="http://www.w3.org/2000/svg" xmlns:xlink="http://www.w3.org/1999/xlink" xmlns:sketch="http://www.bohemiancoding.com/sketch/ns">
    <!-- Generator: Sketch 3.5.1 (25234) - http://www.bohemiancoding.com/sketch -->
    <title>Dark Blue Copy@1x</title>
    <desc>Created with Sketch.</desc>
    <defs></defs>
    <g id="Branding" stroke="none" stroke-width="1" fill="none" fill-rule="evenodd" sketch:type="MSPage">
        <g id="Dark-Blue-Copy" sketch:type="MSLayerGroup">
            <path d="M0.713425522,0.655928324 L295.925435,0.655928324 L295.925435,117.500093 L0.713425522,117.500093 L0.713425522,0.655928324 Z" id="Fill-1" sketch:type="MSShapeGroup"></path>
            <path d="M96.2096729,43.5375097 C95.4466859,43.0931484 94.5050971,43.0931484 93.7421102,43.5375097 L62.2038873,61.9120645 C61.4394715,62.3592834 60.9693915,63.1808518 60.9693915,64.0710032 L60.9693915,73.7597945 C60.9693915,74.6499459 61.4394715,75.4715143 62.2038873,75.9173044 C62.9611589,76.3573793 63.8884596,76.3588081 64.6500177,75.9273061 C64.655733,75.9230197 64.6643059,75.920162 64.6714499,75.9158756 L75.047501,69.8662749 L75.047501,92.328668 C75.047501,93.2173906 75.517581,94.0403878 76.2819967,94.4847491 C76.6634902,94.7062154 77.0892769,94.8190917 77.5150637,94.8190917 C77.9408504,94.8190917 78.3666371,94.7062154 78.7495594,94.4847491 L84.9520432,90.8712772 C85.7150302,90.4254871 86.1851102,89.6039187 86.1851102,88.7151961 L86.1851102,63.3751705 L96.2096729,57.5341768 C96.9740886,57.0883866 97.4441686,56.2653895 97.4441686,55.3766669 L97.4441686,45.6935908 C97.4441686,44.8034394 96.9740886,43.981871 96.2096729,43.5375097" id="Fill-2" fill="#FFFFFF" sketch:type="MSShapeGroup"></path>
            <path d="M62.2038873,37.6665109 L71.7397954,43.2245994 C72.0412752,43.4003435 72.2284499,43.7246844 72.2284499,44.074744 L72.2284499,50.7987451 C72.2284499,51.5574456 73.0428742,52.0346697 73.6987001,51.6531762 C77.5550705,49.4099374 87.9296927,43.3746249 91.7689173,41.1485319 C92.4218856,40.769896 92.410455,39.8340225 91.7589156,39.4553866 L64.6714499,23.6712726 C63.908463,23.2269113 62.9668742,23.2269113 62.2038873,23.6712726 C61.4394715,24.1170628 60.9693915,24.9386311 60.9693915,25.8273537 L60.9693915,35.5104298 C60.9693915,36.4005812 61.4394715,37.2221495 62.2038873,37.6665109" id="Fill-3" fill="#FFFFFF" sketch:type="MSShapeGroup"></path>
            <path d="M56.6143648,23.6712726 C55.8499491,23.2269113 54.9097891,23.2269113 54.1453734,23.6712726 L27.032189,39.4711036 C26.3920801,39.8425954 26.3792208,40.7598943 27.0193297,41.1313861 C30.845695,43.350335 41.3046173,49.4342273 45.1481283,51.670322 C45.7910948,52.0446714 46.5898022,51.5745914 46.5898022,50.830179 L46.5898022,44.0633135 C46.5898022,43.720398 46.7712616,43.4032012 47.068455,43.2303146 L56.1271391,37.950845 C57.1930347,37.3293106 57.8488606,36.1891166 57.8488606,34.9560497 L57.8488606,25.8273537 C57.8488606,24.9386311 57.3787806,24.1170628 56.6143648,23.6712726" id="Fill-4" fill="#FFFFFF" sketch:type="MSShapeGroup"></path>
            <path d="M56.081417,61.9120645 L24.5417653,43.5375097 C23.7787783,43.0931484 22.8386184,43.0931484 22.0742026,43.5375097 C21.3112157,43.981871 20.8411357,44.8034394 20.8411357,45.6935908 L20.8411357,55.3766669 C20.8411357,56.2653895 21.3112157,57.0883866 22.0742026,57.5341768 L32.0987653,63.3751705 L32.0987653,88.7151961 C32.0987653,89.6039187 32.5688453,90.4254871 33.333261,90.8712772 L39.5343161,94.4847491 C39.9186672,94.7062154 40.3444539,94.8190917 40.7688118,94.8190917 C41.1945985,94.8190917 41.6203853,94.7062154 42.0033076,94.4847491 C42.7662945,94.0403878 43.2363745,93.2173906 43.2363745,92.328668 L43.2363745,69.8662749 L53.6124255,75.9158756 C53.6209984,75.920162 53.6281425,75.9230197 53.6352866,75.9273061 C54.3954159,76.3588081 55.3227165,76.3573793 56.081417,75.9173044 C56.844404,75.4715143 57.3159128,74.6499459 57.3159128,73.7597945 L57.3159128,64.0710032 C57.3159128,63.1808518 56.844404,62.3592834 56.081417,61.9120645" id="Fill-5" fill="#FFFFFF" sketch:type="MSShapeGroup"></path>
            <path d="M59.1362225,0.655928324 C26.870733,0.655928324 0.713425522,26.8118069 0.713425522,59.0787253 C0.713425522,91.3442148 26.870733,117.500093 59.1362225,117.500093 C91.401712,117.500093 117.559019,91.3442148 117.559019,59.0787253 C117.559019,26.8118069 91.401712,0.655928324 59.1362225,0.655928324 L59.1362225,0.655928324 Z M57.3101975,73.7469352 C57.3101975,74.6356578 56.8401175,75.4572261 56.0771306,75.9015874 C55.3198589,76.3416623 54.3925583,76.34452 53.6338578,75.9115892 C53.6267137,75.9087315 53.6181408,75.9044451 53.6109967,75.9001586 L43.2435186,69.857702 L43.2435186,92.2986629 C43.2435186,93.1873855 42.7748674,94.0103827 42.0118804,94.454744 C41.630387,94.6747814 41.2046002,94.7876578 40.7788135,94.7876578 C40.3544556,94.7876578 39.9286689,94.6747814 39.5457466,94.454744 L33.348978,90.8427009 C32.585991,90.3983396 32.1159111,89.5767712 32.1159111,88.6894774 L32.1159111,63.3708841 L22.0999213,57.5356056 C21.3369343,57.0898155 20.8682832,56.2682471 20.8682832,55.3795245 L20.8682832,45.7050214 C20.8682832,44.8162987 21.3369343,43.9961592 22.0999213,43.5517979 C22.864337,43.1060077 23.8030682,43.1060077 24.5660551,43.5517979 L56.0771306,61.9092068 C56.8401175,62.3564258 57.3101975,63.1779941 57.3101975,64.0667168 L57.3101975,73.7469352 L57.3101975,73.7469352 Z M57.8431453,34.9760531 C57.8431453,36.2091201 57.1887483,37.3478852 56.1242815,37.9694195 L46.5940886,43.5232216 L46.5940886,50.8373231 C46.5940886,51.5817355 45.7968101,52.0503866 45.1538436,51.6774661 C41.314619,49.4428001 30.8642695,43.3631944 27.0421907,41.147103 C26.4020818,40.7756113 26.4149411,39.8597412 27.0536212,39.4882494 L54.1439445,23.7027065 C54.9069315,23.2583452 55.8470914,23.2583452 56.6100784,23.7027065 C57.3730654,24.1470679 57.8431453,24.9686362 57.8431453,25.8573588 L57.8431453,34.9760531 L57.8431453,34.9760531 Z M60.9608186,25.8573588 C60.9608186,24.9686362 61.4308986,24.1470679 62.1953144,23.7027065 C62.9568725,23.2583452 63.8970325,23.2583452 64.6600194,23.7027065 L91.7360546,39.4782477 C92.3818788,39.8554547 92.3933093,40.7813265 91.7460563,41.1556759 C87.9211198,43.3746249 77.5364959,49.4156527 73.6786967,51.6603203 C73.0242996,52.0403849 72.2098753,51.5645897 72.2098753,50.8058892 L72.2098753,43.620381 C72.2098753,43.5603708 72.1784414,43.5032182 72.1255753,43.4732131 L62.1953144,37.6865143 C61.4308986,37.2407241 60.9608186,36.4191558 60.9608186,35.5304332 L60.9608186,25.8573588 L60.9608186,25.8573588 Z M97.4041618,55.3795245 C97.4041618,56.2682471 96.9355106,57.0898155 96.1710949,57.5356056 L86.1551051,63.3708841 L86.1551051,88.6894774 C86.1551051,89.5767712 85.6864539,90.3983396 84.923467,90.8427009 L78.7252696,94.454744 C78.3437761,94.6747814 77.9179894,94.7876578 77.4922026,94.7876578 C77.0664159,94.7876578 76.642058,94.6747814 76.2605645,94.454744 C75.4961487,94.0103827 75.0274976,93.1873855 75.0274976,92.2986629 L75.0274976,69.857702 L64.6600194,75.9001586 C64.6528753,75.9044451 64.6457313,75.9087315 64.6385872,75.9115892 C63.8784579,76.34452 62.9511572,76.3416623 62.1953144,75.9015874 C61.4308986,75.4572261 60.9608186,74.6356578 60.9608186,73.7469352 L60.9608186,64.0667168 C60.9608186,63.1779941 61.4308986,62.3564258 62.1953144,61.9092068 L93.704961,43.5517979 C94.467948,43.1060077 95.4081079,43.1060077 96.1710949,43.5517979 C96.9355106,43.9961592 97.4041618,44.8162987 97.4041618,45.7050214 L97.4041618,55.3795245 L97.4041618,55.3795245 Z" id="Fill-6" fill="#2D88F3" sketch:type="MSShapeGroup"></path>
            <path d="M130.541228,33.2729062 C130.541228,32.4927735 131.162762,31.7926544 131.941466,31.7926544 L150.950415,31.7926544 C165.984401,31.7926544 178.295067,44.0233067 178.295067,58.9801371 C178.295067,74.0927083 165.984401,86.3247894 150.950415,86.3247894 L131.941466,86.3247894 C131.162762,86.3247894 130.541228,85.6246703 130.541228,84.8445375 L130.541228,33.2729062 L130.541228,33.2729062 Z M150.87183,74.795685 C159.676185,74.795685 165.362867,67.8616481 165.362867,58.9801371 C165.362867,50.1786396 159.676185,43.2446028 150.87183,43.2446028 L142.693296,43.2446028 L142.693296,74.795685 L150.87183,74.795685 L150.87183,74.795685 Z" id="Fill-7" fill="#2D88F3" sketch:type="MSShapeGroup"></path>
            <path d="M184.913336,52.0461002 C184.913336,51.0344995 185.69204,50.3329516 186.625056,50.3329516 L190.364263,50.3329516 C191.302994,50.3329516 191.768788,50.8016028 192.000256,51.4245659 L193.636249,55.3966703 C195.195085,52.5147514 197.921263,49.5542477 202.596344,49.5542477 C205.871187,49.5542477 208.285884,50.4115364 209.607537,51.4245659 C210.231929,51.8917882 210.231929,52.6690633 209.841863,53.3720401 L206.256967,60.4603889 C205.871187,61.1619368 205.245367,61.707744 204.232337,61.3176776 C203.607945,61.0833521 202.284863,60.7732993 201.506159,60.7732993 C198.779981,60.7732993 196.755351,62.7207735 196.755351,65.7584332 L196.755351,84.6116408 C196.755351,85.7018262 196.12953,86.3247894 194.807877,86.3247894 L186.625056,86.3247894 C185.69204,86.3247894 184.913336,85.5446567 184.913336,84.6116408 L184.913336,52.0461002" id="Fill-8" fill="#2D88F3" sketch:type="MSShapeGroup"></path>
            <path d="M216.091498,38.6080996 C216.091498,34.8703208 219.052001,31.7540764 222.788351,31.7540764 C226.528988,31.7540764 229.568076,34.8703208 229.568076,38.6080996 C229.568076,42.2701513 226.528988,45.3092397 222.788351,45.3092397 C219.052001,45.3092397 216.091498,42.2701513 216.091498,38.6080996 L216.091498,38.6080996 Z M216.950215,52.0075222 C216.950215,50.9959215 217.726061,50.2943736 218.661935,50.2943736 L227.073366,50.2943736 C228.012097,50.2943736 228.789372,50.9959215 228.789372,52.0075222 L228.789372,84.5730628 C228.789372,85.5060787 228.012097,86.2862114 227.073366,86.2862114 L218.661935,86.2862114 C217.726061,86.2862114 216.950215,85.5060787 216.950215,84.5730628 L216.950215,52.0075222 L216.950215,52.0075222 Z" id="Fill-9" fill="#2D88F3" sketch:type="MSShapeGroup"></path>
            <path d="M240.018426,61.0061961 L236.902181,61.0061961 C235.889152,61.0061961 235.187604,60.2274922 235.187604,59.2930475 L235.187604,52.0461002 C235.187604,51.0344995 235.889152,50.3329516 236.902181,50.3329516 L240.018426,50.3329516 L240.018426,47.3738767 C240.018426,37.7122329 245.080715,31.0125216 255.521063,31.0125216 C260.193287,31.0125216 264.946953,32.9614246 266.507218,34.4416765 C267.053025,34.830314 267.204479,35.7661876 266.817271,36.4663067 L263.000907,43.166018 C262.607983,43.7904099 261.752123,44.0233067 261.052004,43.6332403 C259.883234,42.9316924 258.171514,42.2315733 256.376923,42.2315733 C252.326234,42.2315733 251.857583,44.490529 251.857583,47.3738767 L251.857583,50.3329516 L260.896263,50.3329516 C261.829279,50.3329516 262.607983,51.0344995 262.607983,52.0461002 L262.607983,59.2930475 C262.607983,60.2274922 261.829279,61.0061961 260.896263,61.0061961 L251.857583,61.0061961 L251.857583,84.6116408 C251.857583,85.5446567 251.001723,86.3247894 250.070136,86.3247894 L241.733003,86.3247894 C240.874285,86.3247894 240.018426,85.5446567 240.018426,84.6116408 L240.018426,61.0061961" id="Fill-10" fill="#2D88F3" sketch:type="MSShapeGroup"></path>
            <path d="M273.578421,60.9676181 L270.617917,60.9676181 C269.762057,60.9676181 269.057652,60.1889142 269.057652,59.2530406 L269.057652,52.0075222 C269.057652,50.9959215 269.762057,50.2943736 270.617917,50.2943736 L273.578421,50.2943736 L273.578421,40.3226771 C273.578421,39.3882324 274.357125,38.6080996 275.292998,38.6080996 L283.86017,38.6080996 C284.718888,38.6080996 285.419007,39.3882324 285.419007,40.3226771 L285.419007,50.2943736 L292.665954,50.2943736 C293.597541,50.2943736 294.377674,50.9959215 294.377674,52.0075222 L294.377674,59.2530406 C294.377674,60.1889142 293.597541,60.9676181 292.665954,60.9676181 L285.419007,60.9676181 L285.419007,73.5097519 C285.419007,75.2243294 286.274867,76.0016045 287.835132,76.0016045 C289.081059,76.0016045 291.41717,75.4572261 292.275888,75.2243294 C293.210333,74.9900038 294.066192,75.3786413 294.300518,76.3145148 L295.860784,83.0928109 C296.092251,84.1829964 295.702185,84.6502188 294.690584,85.1174411 C292.275888,86.1304706 288.225199,87.1435001 284.404549,87.1435001 C277.551954,87.1435001 273.578421,82.7799006 273.578421,74.6013662 L273.578421,60.9676181" id="Fill-11" fill="#2D88F3" sketch:type="MSShapeGroup"></path>
        </g>
    </g>
</svg>

<svg width="296" height="118" xmlns="http://www.w3.org/2000/svg"><g fill="none" fill-rule="evenodd"><path d="M.713.656h295.212V117.5H.713V.656z"/><path d="M96.21 43.538a2.45 2.45 0 00-2.468 0L62.204 61.912a2.5 2.5 0 00-1.235 2.159v9.689c0 .89.47 1.712 1.235 2.157a2.45 2.45 0 002.446.01l.021-.011 10.377-6.05V92.33c0 .888.47 1.711 1.234 2.156.381.221.807.334 1.233.334.426 0 .852-.113 1.235-.334l6.202-3.614a2.496 2.496 0 001.233-2.156v-25.34l10.025-5.84a2.497 2.497 0 001.234-2.158v-9.683c0-.89-.47-1.712-1.234-2.156m-34.006-5.872l9.536 5.558c.301.175.488.5.488.85v6.724a.98.98 0 001.47.854c3.857-2.243 14.232-8.278 18.07-10.504.654-.38.642-1.315-.01-1.694L64.672 23.671a2.45 2.45 0 00-2.467 0 2.495 2.495 0 00-1.235 2.156v9.683c0 .89.47 1.712 1.235 2.157m-5.591-13.996a2.453 2.453 0 00-2.469 0l-27.113 15.8c-.64.372-.653 1.289-.013 1.66 3.827 2.22 14.286 8.303 18.13 10.54.642.374 1.44-.096 1.44-.84v-6.768c0-.343.182-.66.48-.833l9.058-5.28a3.467 3.467 0 001.722-2.994v-9.129c0-.888-.47-1.71-1.235-2.156m-.533 38.241l-31.54-18.374a2.45 2.45 0 00-2.467 0 2.493 2.493 0 00-1.233 2.156v9.683c0 .888.47 1.711 1.233 2.157L32.1 63.375v25.34c0 .889.47 1.71 1.234 2.156l6.201 3.614c.385.221.81.334 1.235.334.426 0 .851-.113 1.234-.334a2.495 2.495 0 001.233-2.156V69.866l10.376 6.05.023.011a2.45 2.45 0 002.446-.01 2.498 2.498 0 001.235-2.157v-9.69c0-.89-.472-1.712-1.235-2.159" fill="#FFF"/><path d="M59.136.656C26.871.656.713 26.812.713 59.079c0 32.265 26.158 58.421 58.423 58.421 32.266 0 58.423-26.156 58.423-58.421 0-32.267-26.157-58.423-58.423-58.423zm-1.826 73.09c0 .89-.47 1.711-1.233 2.156a2.443 2.443 0 01-2.466-.002l-10.367-6.042v22.44c0 .89-.47 1.712-1.232 2.157a2.47 2.47 0 01-1.233.333c-.425 0-.85-.113-1.233-.333l-6.197-3.612a2.492 2.492 0 01-1.233-2.154V63.371L22.1 57.536a2.495 2.495 0 01-1.232-2.156v-9.675c0-.889.469-1.709 1.232-2.153a2.441 2.441 0 012.466 0l31.511 18.357a2.5 2.5 0 011.233 2.158v9.68zm.533-38.77a3.465 3.465 0 01-1.719 2.993l-9.53 5.554v7.314a.96.96 0 01-1.44.84c-3.84-2.234-14.29-8.314-18.112-10.53-.64-.371-.627-1.287.012-1.659l27.09-15.785a2.448 2.448 0 012.466 0 2.492 2.492 0 011.233 2.154v9.12zm3.118-9.119c0-.888.47-1.71 1.234-2.154a2.445 2.445 0 012.465 0l27.076 15.775c.646.377.657 1.303.01 1.678-3.825 2.219-14.21 8.26-18.067 10.504a.98.98 0 01-1.47-.854V43.62a.17.17 0 00-.083-.147l-9.93-5.786a2.495 2.495 0 01-1.235-2.157v-9.673zM97.404 55.38c0 .888-.468 1.71-1.233 2.156L86.155 63.37v25.318a2.49 2.49 0 01-1.232 2.154l-6.198 3.612a2.47 2.47 0 01-1.233.333 2.46 2.46 0 01-1.231-.333 2.492 2.492 0 01-1.234-2.156v-22.44L64.66 75.9a2.443 2.443 0 01-2.465.001 2.49 2.49 0 01-1.234-2.154v-9.68a2.5 2.5 0 011.234-2.158l31.51-18.357a2.441 2.441 0 012.466 0 2.487 2.487 0 011.233 2.153v9.675zm33.137-22.107c0-.78.622-1.48 1.4-1.48h19.01c15.033 0 27.344 12.23 27.344 27.187 0 15.113-12.31 27.345-27.345 27.345h-19.009c-.778 0-1.4-.7-1.4-1.48V33.273zm20.33 41.523c8.805 0 14.492-6.934 14.492-15.816 0-8.801-5.687-15.735-14.491-15.735h-8.179v31.55h8.179zm34.042-22.75c0-1.012.779-1.713 1.712-1.713h3.74c.938 0 1.404.469 1.635 1.092l1.636 3.972c1.56-2.882 4.285-5.843 8.96-5.843 3.275 0 5.69.858 7.012 1.87.624.468.624 1.245.234 1.948l-3.585 7.088c-.386.702-1.012 1.248-2.025.858-.624-.235-1.947-.545-2.726-.545-2.726 0-4.75 1.948-4.75 4.985v18.854c0 1.09-.626 1.713-1.948 1.713h-8.183a1.73 1.73 0 01-1.712-1.713V52.046m31.178-13.438c0-3.738 2.961-6.854 6.697-6.854 3.741 0 6.78 3.116 6.78 6.854 0 3.662-3.039 6.701-6.78 6.701-3.736 0-6.697-3.039-6.697-6.7zm.86 13.4c0-1.012.775-1.714 1.71-1.714h8.412c.94 0 1.716.702 1.716 1.714v32.565c0 .933-.777 1.713-1.716 1.713h-8.411c-.936 0-1.712-.78-1.712-1.713V52.008zm23.067 8.998h-3.116c-1.013 0-1.714-.779-1.714-1.713v-7.247c0-1.012.701-1.713 1.714-1.713h3.116v-2.96c0-9.66 5.063-16.36 15.503-16.36 4.672 0 9.426 1.948 10.986 3.429.546.388.697 1.324.31 2.024l-3.816 6.7c-.393.624-1.249.857-1.949.467-1.169-.701-2.88-1.401-4.675-1.401-4.05 0-4.52 2.259-4.52 5.142v2.959h9.04c.932 0 1.711.701 1.711 1.713v7.247c0 .934-.779 1.713-1.712 1.713h-9.038v23.606c0 .933-.856 1.713-1.788 1.713h-8.337c-.859 0-1.715-.78-1.715-1.713V61.006m33.56-.038h-2.96c-.856 0-1.56-.78-1.56-1.715v-7.245c0-1.012.704-1.714 1.56-1.714h2.96v-9.971a1.73 1.73 0 011.715-1.715h8.567c.859 0 1.559.78 1.559 1.715v9.971h7.247c.932 0 1.712.702 1.712 1.714v7.245a1.73 1.73 0 01-1.712 1.715h-7.247V73.51c0 1.714.856 2.492 2.416 2.492 1.246 0 3.582-.545 4.44-.778.935-.234 1.791.155 2.026 1.09l1.56 6.779c.231 1.09-.159 1.557-1.17 2.024-2.415 1.013-6.466 2.027-10.286 2.027-6.853 0-10.827-4.364-10.827-12.543V60.968" fill="#2D88F3"/></g></svg>
